gloss/img/linkedin.svg

<svg width="24" height="22" viewBox="0 0 24 22" fill="none" xmlns="http://www.w3.org/2000/svg">
<path d="M5.33203 21.9997H0.332031V5.33301H5.33203V21.9997ZM23.6654 21.9997H18.6654V13.0963C18.6654 10.7763 17.8387 9.62134 16.2004 9.62134C14.902 9.62134 14.0787 10.268 13.6654 11.563V21.9997H8.66537C8.66537 21.9997 8.73203 6.99967 8.66537 5.33301H12.612L12.917 8.66634H13.0204C14.0454 6.99967 15.6837 5.86967 17.9304 5.86967C19.6387 5.86967 21.0204 6.34467 22.0754 7.53801C23.137 8.73301 23.6654 10.3363 23.6654 12.588V21.9997Z" fill="white" fill-opacity="0.8"/>
<path d="M2.83324 5.33301C4.25998 5.33301 5.41658 4.21372 5.41658 2.83301C5.41658 1.4523 4.25998 0.333008 2.83324 0.333008C1.40651 0.333008 0.249908 1.4523 0.249908 2.83301C0.249908 4.21372 1.40651 5.33301 2.83324 5.33301Z" fill="white" fill-opacity="0.8"/>
</svg>

<svg xmlns="http://www.w3.org/2000/svg" width="24" height="22" fill="none"><path fill="#fff" fill-opacity=".8" d="M5.332 22h-5V5.333h5zm18.333 0h-5v-8.904c0-2.32-.826-3.475-2.465-3.475-1.298 0-2.121.647-2.535 1.942V22h-5s.067-15 0-16.667h3.947l.305 3.333h.103C14.045 7 15.684 5.87 17.93 5.87c1.709 0 3.09.475 4.145 1.668 1.062 1.195 1.59 2.798 1.59 5.05zM2.833 5.333c1.427 0 2.584-1.12 2.584-2.5S4.26.333 2.833.333C1.407.333.25 1.453.25 2.833s1.157 2.5 2.583 2.5"/></svg>
